X:157
M:6/8
L:1/8
K:G
|: dfa a2B | cBA B3 | B2e ^d2e | fe^d e3 | g2d {c}BAG | d2A {G}FED | EGc Bdg | BcA G3 :|

